X:1
T:Title
%%score 1 2
L:1/8
Q:1/4=100
M:4/4
K:D
V:1 treble nm="Grand Piano, Soprano"
V:2 bass nm="Choir Pad, Christmas Island, Burkett"
V:1
 [DF]3 [FA] [GB][FA][DF]D | [DG] [GB]3- [GB]/ z/ z z2 | [FA]3 [FA] [GB][FA][DF]D | [CE]6 z2 | %4
w: By~J.~C.~Burkett,~1894 * * * * *||||
 [DF]3 [FA] [GB][FA][DF]D | [EG] [GB]3- [GB]/ z/ z z2 | [FA]3 [FA] [GB][FA][EG][CE] | D6 z2 | %8
w: ||||
 [Fd]3 [Ad] [Ge][Bd][Ac][GB] | [GB] [FA]3- [FA]/ z/ z z2 | [FA]3 [FA] [Fd][FA][DF]D | [CE]6 z2 | %12
w: ||||
 [DF]3 [FA] [GB][FA][DF]D | [DG] [GB]3- [GB]/ z/ z z2 | [FA]3 [FA] [GB][FA][EG][CE] | D8 |] %16
w: ||||
V:2
 [D,A,]3 [D,D] [D,D][D,D][D,A,][F,A,] | [G,B,] [G,D]3- [G,D]/ z/ z z2 | %2
 [D,D]3 [D,D] [D,D][D,D][D,A,][D,F,] | [A,,A,]6 z2 | [D,A,]3 [D,D] [D,D][D,D][D,A,][F,A,] | %5
 [G,B,] [G,D]3- [G,D]/ z/ z z2 | [A,D]3 [A,D] [A,D][A,D][A,,A,][A,,G,] | [D,F,]6 z2 | %8
 [D,A,]3 [F,D] [G,B,][G,D][G,D][G,D] | [D,D] [D,D]3- [D,D]/ z/ z z2 | %10
 [D,D]3 [D,D] [D,A,][D,D][D,A,][D,F,] | [A,,A,]6 z2 | [D,A,]3 [D,D] [D,D][D,D][D,A,][F,A,] | %13
 [G,B,] [G,D]3- [G,D]/ z/ z z2 | [A,D]3 [A,D] [A,D][A,D][A,,A,][A,,G,] | [D,F,]8 |] %16

